X: 03008
T: BIBLE HILL
C: Bob McQuillen Odt 76
B: Bob's Note Book 03 #8
%R: jig
%D:1976
Z: 2020 John Chambers <jc:trillian.mit.edu>
M: 6/8
L: 1/8
K: D
A \
| dcd A2G | FGA GFE | DFA AFA | def e2A |\
| dcd A2G | FGA GFE | FGA ABc | dDD D2 :|
|: A \
| FEF GFG | Adc dAF | Adc dfa | agf e2A |\
| FEF GFG | Adc dAF | def ede | fdd d2 :|
%%begintext align
%% Allan Block lives up there.
%% That's where he makes good
%% leather sandals and better music.
%% (It's in Francestown, N.H.)
%%endtext

%%sep 1 1 500

%%sep 1 1 500

